src/resources/icons/boclips.svg

<svg viewBox="0 0 78 24" fill="none" xmlns="http://www.w3.org/2000/svg" aria-hidden="true"  role="img">
    <title>Boclips logo</title>
    <path
        d="M29.0488 12.9319C29.0488 9.26864 31.4406 6.3584 35.1322 6.3584C37.3161 6.3584 38.5639 7.21581 39.5779 8.48885L38.6427 9.32028C37.732 8.07353 36.5881 7.58012 35.2102 7.58012C32.2724 7.58012 30.4787 9.91839 30.4787 12.9322C30.4787 15.9461 32.2726 18.3103 35.2102 18.3103C36.5881 18.3103 37.732 17.7908 38.6419 16.5437L39.5771 17.3751C38.5627 18.674 37.3153 19.5315 35.1315 19.5315C31.4406 19.5311 29.0488 16.5952 29.0488 12.9319Z"
        fill="black"/>
    <path
        d="M42.5928 16.8035V1.89062H43.9446V16.5956C43.9446 17.6094 44.3605 18.3103 45.2443 18.3103C45.8423 18.3103 46.3622 18.0252 46.6481 17.7127L47.168 18.7519C46.6741 19.2195 46.0761 19.5314 45.0362 19.5314C43.3987 19.5315 42.5928 18.5183 42.5928 16.8035Z"
        fill="black"/>
    <path
        d="M48.8838 3.6573C48.8838 3.0858 49.3778 2.64355 49.924 2.64355C50.496 2.64355 50.9642 3.08517 50.9642 3.6573C50.9634 3.93268 50.8536 4.19656 50.6587 4.39128C50.4638 4.586 50.1997 4.69575 49.924 4.69654C49.378 4.69654 48.8838 4.22927 48.8838 3.6573ZM49.2484 19.2197V6.67113H50.6007V19.2197H49.2484Z"
        fill="black"/>
    <path
        d="M56.1604 17.193V23.9998H54.8086V6.6711H56.1604V8.64569C57.0444 7.37265 58.6562 6.35938 60.5281 6.35938C63.8818 6.35938 66.1436 8.90546 66.1436 12.9329C66.1436 16.9338 63.8818 19.532 60.5281 19.532C58.7611 19.5313 57.1749 18.6219 56.1604 17.193ZM64.6878 12.9321C64.6878 9.89291 63.1028 7.5803 60.2948 7.5803C58.5538 7.5803 56.8896 8.61924 56.1604 9.81371V16.0229C56.8884 17.218 58.5522 18.3092 60.2941 18.3092C63.1028 18.3105 64.6878 15.9719 64.6878 12.9321Z"
        fill="black"/>
    <path
        d="M68.459 17.531L69.265 16.5437C70.0709 17.5575 71.5528 18.3884 73.3205 18.3884C75.4264 18.3884 76.6742 17.2972 76.6742 15.8423C76.6742 12.4129 68.7449 14.3615 68.7449 9.8408C68.7449 7.91817 70.3827 6.35938 73.2165 6.35938C75.3744 6.35938 76.8042 7.1908 77.7142 8.20407L76.9603 9.1646C76.2323 8.17731 74.8805 7.50142 73.2167 7.50142C71.2671 7.50142 70.0969 8.48872 70.0969 9.78773C70.0969 12.9315 78.0003 11.0088 78.0003 15.8412C78.0003 17.8673 76.4405 19.5305 73.2952 19.5305C71.2664 19.5316 69.7069 18.9339 68.459 17.531Z"
        fill="black"/>
    <path
        d="M21.0672 6.62988C17.3615 6.62988 14.3574 9.63199 14.3574 13.3353C14.3574 17.0387 17.3615 20.0408 21.0672 20.0408C24.773 20.0408 27.7772 17.0387 27.7772 13.3353C27.7772 9.63199 24.773 6.62988 21.0672 6.62988ZM21.0574 17.2425C18.9089 17.2425 17.1673 15.5021 17.1673 13.355C17.1673 11.2079 18.9089 9.46742 21.0574 9.46742C23.2059 9.46742 24.9475 11.2079 24.9475 13.355C24.9475 15.5021 23.2059 17.2432 21.0574 17.2432V17.2425Z"
        fill="black"/>
    <path
        d="M22.575 13.1074C22.4697 12.9922 21.164 11.8481 20.7121 11.6476C20.5036 11.5552 20.3392 11.6434 20.2617 11.866C20.2339 11.9581 20.2147 12.0526 20.2043 12.1483C20.1659 12.4492 20.1509 12.8946 20.1525 13.3353C20.1509 13.7761 20.1659 14.2214 20.2043 14.5223C20.2147 14.618 20.2339 14.7126 20.2617 14.8047C20.3392 15.0273 20.5036 15.1155 20.7121 15.023C21.164 14.8226 22.4697 13.6784 22.575 13.5634C22.6351 13.4976 22.6828 13.4251 22.6785 13.3353C22.6828 13.2455 22.6351 13.1729 22.575 13.1074Z"
        fill="#DC491C"/>
    <path
        d="M6.70982 6.66759C5.31957 6.66535 3.96327 7.0967 2.83003 7.90151V0.314261C2.82978 0.230991 2.79657 0.151203 2.73765 0.0923219C2.67873 0.0334407 2.59889 0.000250689 2.51557 0H0.314466C0.231101 0.00020926 0.151213 0.0334077 0.0922802 0.0923321C0.0333472 0.151256 0.000167389 0.231109 0 0.314419V13.2631C0 13.2679 0 13.2726 0 13.2774C0 13.3091 0 13.3407 0 13.3724C0 17.0758 3.00407 20.078 6.70982 20.078C10.4156 20.078 13.4196 17.0758 13.4196 13.3724C13.4196 9.66907 10.4156 6.66759 6.70982 6.66759ZM6.69999 17.2802C4.55151 17.2812 2.80943 15.5404 2.80943 13.3933C2.80943 13.3862 2.82972 12.9946 2.82972 12.9946C3.02943 11.0348 4.68592 9.50576 6.69967 9.50576C8.84831 9.50576 10.5901 11.2462 10.5901 13.3933C10.5901 15.5404 8.84831 17.2812 6.69999 17.2812V17.2802Z"
        fill="black"/>
    <path
        d="M6.75253 6.66699C5.307 6.66699 3.93232 7.08754 2.8252 7.90091L2.84105 12.9305C3.12397 10.9208 4.75653 9.5058 6.7427 9.50501"
        fill="black"/>
</svg>

<svg viewBox="0 0 78 24" fill="none" xmlns="http://www.w3.org/2000/svg" aria-hidden="true"><path d="M29.049 12.932c0-3.663 2.392-6.574 6.083-6.574 2.184 0 3.432.858 4.446 2.13l-.935.832c-.911-1.246-2.055-1.74-3.433-1.74-2.938 0-4.731 2.338-4.731 5.352 0 3.014 1.794 5.378 4.731 5.378 1.378 0 2.522-.52 3.432-1.766l.935.831c-1.014 1.299-2.262 2.157-4.445 2.157-3.691 0-6.083-2.937-6.083-6.6ZM42.593 16.803V1.891h1.352v14.705c0 1.013.416 1.714 1.3 1.714.597 0 1.117-.285 1.403-.597l.52 1.039c-.494.468-1.092.78-2.132.78-1.637 0-2.443-1.014-2.443-2.729ZM48.884 3.657c0-.571.494-1.013 1.04-1.013.572 0 1.04.441 1.04 1.013a1.042 1.042 0 0 1-1.04 1.04 1.06 1.06 0 0 1-1.04-1.04Zm.364 15.563V6.67h1.353V19.22h-1.353ZM56.16 17.193V24H54.81V6.67h1.351v1.975c.884-1.273 2.496-2.287 4.368-2.287 3.354 0 5.616 2.546 5.616 6.574 0 4-2.262 6.599-5.616 6.599-1.767 0-3.353-.91-4.368-2.339Zm8.528-4.26c0-3.04-1.585-5.353-4.393-5.353-1.741 0-3.405 1.04-4.135 2.234v6.209c.728 1.195 2.392 2.286 4.134 2.286 2.809.002 4.394-2.337 4.394-5.377ZM68.459 17.531l.806-.987c.806 1.014 2.288 1.844 4.055 1.844 2.106 0 3.354-1.09 3.354-2.546 0-3.43-7.93-1.48-7.93-6.001 0-1.923 1.639-3.482 4.472-3.482 2.158 0 3.588.832 4.498 1.845l-.754.96c-.728-.987-2.08-1.663-3.743-1.663-1.95 0-3.12.988-3.12 2.287 0 3.143 7.903 1.22 7.903 6.053 0 2.026-1.56 3.69-4.705 3.69-2.029 0-3.588-.597-4.836-2ZM21.067 6.63a6.708 6.708 0 0 0-6.71 6.705 6.708 6.708 0 0 0 6.71 6.706 6.708 6.708 0 0 0 6.71-6.706 6.708 6.708 0 0 0-6.71-6.705Zm-.01 10.613a3.889 3.889 0 1 1 0-7.776 3.889 3.889 0 1 1 0 7.776Z" fill="#000"/><path d="M22.575 13.107c-.105-.115-1.411-1.259-1.863-1.46-.208-.092-.373-.004-.45.219a1.56 1.56 0 0 0-.058.282c-.038.301-.053.747-.052 1.187-.001.441.014.886.052 1.187.01.096.03.19.058.283.077.222.242.31.45.218.452-.2 1.758-1.345 1.863-1.46.06-.065.108-.138.104-.228.004-.09-.044-.162-.104-.228Z" fill="#DC491C"/><path d="M6.71 6.668a6.682 6.682 0 0 0-3.88 1.234V.314A.315.315 0 0 0 2.516 0H.314A.315.315 0 0 0 0 .314v13.058a6.708 6.708 0 0 0 6.71 6.706 6.708 6.708 0 0 0 6.71-6.706 6.707 6.707 0 0 0-6.71-6.704ZM6.7 17.28a3.888 3.888 0 0 1-3.89-3.887l.02-.398a3.89 3.89 0 0 1 3.87-3.49 3.889 3.889 0 1 1 0 7.776Z" fill="#000"/><path d="M6.753 6.667c-1.446 0-2.82.42-3.928 1.234l.016 5.03c.283-2.01 1.916-3.425 3.902-3.426" fill="#000"/></svg>
